svgs/thin/piano-keyboard.svg

<svg xmlns="http://www.w3.org/2000/svg" viewBox="0 0 576 512"><!--! Font Awesome Pro 6.6.0 by @fontawesome - https://fontawesome.com License - https://fontawesome.com/license (Commercial License) Copyright 2024 Fonticons, Inc. --><path d="M448 224l0 72c0 13.3-10.7 24-24 24s-24-10.7-24-24l0-72 48 0zM416 335.2l0 96.8-120 0 0-96.8c18.3-3.7 32-19.8 32-39.2l0-72 56 0 0 72c0 19.4 13.7 35.5 32 39.2zM432 432l0-96.8c18.3-3.7 32-19.8 32-39.2l0-72 96 0 0 160c0 26.5-21.5 48-48 48l-80 0zm-152 0l-120 0 0-96.8c18.3-3.7 32-19.8 32-39.2l0-72 56 0 0 72c0 19.4 13.7 35.5 32 39.2l0 96.8zm-136 0l-80 0c-26.5 0-48-21.5-48-48l0-160 96 0 0 72c0 19.4 13.7 35.5 32 39.2l0 96.8zm8-112c-13.3 0-24-10.7-24-24l0-72 48 0 0 72c0 13.3-10.7 24-24 24zm136 0c-13.3 0-24-10.7-24-24l0-72 48 0 0 72c0 13.3-10.7 24-24 24zM456 208l-64 0-72 0-64 0-72 0-64 0L16 208l0-80c0-26.5 21.5-48 48-48l448 0c26.5 0 48 21.5 48 48l0 80-104 0zm120 0l0-80c0-35.3-28.7-64-64-64L64 64C28.7 64 0 92.7 0 128l0 80 0 8 0 8L0 384c0 35.3 28.7 64 64 64l448 0c35.3 0 64-28.7 64-64l0-160 0-8 0-8z"/></svg>

<svg xmlns="http://www.w3.org/2000/svg" viewBox="0 0 576 512"><!--! Font Awesome Pro 6.4.0 by @fontawesome - https://fontawesome.com License - https://fontawesome.com/license (Commercial License) Copyright 2023 Fonticons, Inc. --><path d="M448 224v72c0 13.3-10.7 24-24 24s-24-10.7-24-24V224h48zM416 335.2V432H296V335.2c18.3-3.7 32-19.8 32-39.2V224h56v72c0 19.4 13.7 35.5 32 39.2zM432 432V335.2c18.3-3.7 32-19.8 32-39.2V224h96V384c0 26.5-21.5 48-48 48H432zm-152 0H160V335.2c18.3-3.7 32-19.8 32-39.2V224h56v72c0 19.4 13.7 35.5 32 39.2V432zm-136 0H64c-26.5 0-48-21.5-48-48V224h96v72c0 19.4 13.7 35.5 32 39.2V432zm8-112c-13.3 0-24-10.7-24-24V224h48v72c0 13.3-10.7 24-24 24zm136 0c-13.3 0-24-10.7-24-24V224h48v72c0 13.3-10.7 24-24 24zM456 208H392 320 256 184 120 16V128c0-26.5 21.5-48 48-48H512c26.5 0 48 21.5 48 48v80H456zm120 0V128c0-35.3-28.7-64-64-64H64C28.7 64 0 92.7 0 128v80 8 8V384c0 35.3 28.7 64 64 64H512c35.3 0 64-28.7 64-64V224v-8-8z"/></svg>
